X:63
T:Steyrer Tanz in G, nr. 22
C:traditionell
R:Steirer
A:Hallstatt, Salzkammergut
B:Corpus Musicae Popularis Austriacae (COMPA), 5.Band: J.M.Schmalnauer " Tanz Musik", Verlag Boehlau, Wien 1996
S:manuscript des Johann Michael Schmalnauer um 1820
N:im der quelle in G
Z:abc transcription Simon Wascher
F:http://simonwascher.info/TradArchiv/
M:3/4
L:1/8
K:G
V:1
%violino 1mo
P:h:Ap.
gb |\
"o"ec' (b3 f) | (gb) d3 B | ceFfFf | G2 Bdgb |\
"o"ec' (b3 f) | (gb) d3 B | ceFfFf | G4 :|
gb |\
"o"ec'agfa | gbdcBd | ceFAcf | G2 Bdgb |\
"o"ec'agfa | gbdcBd | ceFAcf | G4 :|
V:2
%violino 2do
Bd |\
ce (c3 A) | (Bd) B3 G | FADcDc | B2 GBdB |\
ce (c3 A) | (Bd) B3 G | FADcDc | B4 :|
Bd |\
Aafedc | BgBAGB | AcDFAc | B2 GBdg |\
Aafedc | BgBAGB | AcDFAc | B4 :|
